_includes/icons/ios-nails.svg

<svg fill="#666" height="50" viewBox="0 0 50 50" width="50" xmlns="http://www.w3.org/2000/svg"><path d="m25 2c-1.796875 0-3.460937.242188-4.875.5625-2.996094.679688-5.125 3.367188-5.125 6.4375v7.96875c-4.707031 3.632813-6 9.941406-6 16.03125v15h2v-15c0-5.1875.96875-10.207031 4-13.40625v15.84375l.34375.3125s3.675781 3.25 9.65625 3.25 9.65625-3.25 9.65625-3.25l.34375-.3125v-16.125c3.023438 3.019531 4 7.921875 4 13.6875v15h2v-15c0-6.714844-1.285156-12.867187-6-16.28125v-7.71875c0-3.066406-2.128906-5.757812-5.125-6.4375-1.414062-.320312-3.078125-.5625-4.875-.5625zm0 2c1.613281 0 3.136719.234375 4.4375.53125 2.09375.476563 3.5625 2.320313 3.5625 4.46875v25.46875c-.441406.367188-3.144531 2.53125-8 2.53125s-7.558594-2.164062-8-2.53125v-25.46875c0-2.148437 1.46875-3.992187 3.5625-4.46875 1.300781-.296875 2.824219-.53125 4.4375-.53125zm4 5v23.25c-.753906.324219-4.21875 1.742188-8.59375-.15625l-.8125 1.8125c5.714844 2.476563 10.84375 0 10.84375 0l.5625-.28125v-24.625z"/></svg>

<svg xmlns="http://www.w3.org/2000/svg" viewBox="0 0 50 50" width="50" height="50" fill="#666"><path d="M 25 2 C 23.203125 2 21.539063 2.242188 20.125 2.5625 C 17.128906 3.242188 15 5.929688 15 9 L 15 16.96875 C 10.292969 20.601563 9 26.910156 9 33 L 9 48 L 11 48 L 11 33 C 11 27.8125 11.96875 22.792969 15 19.59375 L 15 35.4375 L 15.34375 35.75 C 15.34375 35.75 19.019531 39 25 39 C 30.980469 39 34.65625 35.75 34.65625 35.75 L 35 35.4375 L 35 19.3125 C 38.023438 22.332031 39 27.234375 39 33 L 39 48 L 41 48 L 41 33 C 41 26.285156 39.714844 20.132813 35 16.71875 L 35 9 C 35 5.933594 32.871094 3.242188 29.875 2.5625 C 28.460938 2.242188 26.796875 2 25 2 Z M 25 4 C 26.613281 4 28.136719 4.234375 29.4375 4.53125 C 31.53125 5.007813 33 6.851563 33 9 L 33 34.46875 C 32.558594 34.835938 29.855469 37 25 37 C 20.144531 37 17.441406 34.835938 17 34.46875 L 17 9 C 17 6.851563 18.46875 5.007813 20.5625 4.53125 C 21.863281 4.234375 23.386719 4 25 4 Z M 29 9 L 29 32.25 C 28.246094 32.574219 24.78125 33.992188 20.40625 32.09375 L 19.59375 33.90625 C 25.308594 36.382813 30.4375 33.90625 30.4375 33.90625 L 31 33.625 L 31 9 Z"/></svg>
